Newaita-dark/actions/22/edit-table-delete-column.svg

<?xml version="1.0" encoding="UTF-8"?>
<svg xmlns="http://www.w3.org/2000/svg" xmlns:xlink="http://www.w3.org/1999/xlink" width="22pt" height="22pt" viewBox="0 0 22 22" version="1.1">
<g id="surface1">
<path style=" stroke:none;fill-rule:nonzero;fill:rgb(74.117649%,74.117649%,74.117649%);fill-opacity:1;" d="M 2.273438 1.082031 C 1.769531 1.082031 1.363281 1.488281 1.363281 1.992188 L 1.363281 19.726562 C 1.363281 20.230469 1.769531 20.636719 2.273438 20.636719 L 19.554688 20.636719 C 20.058594 20.636719 20.464844 20.230469 20.464844 19.726562 L 20.464844 1.992188 C 20.464844 1.488281 20.058594 1.082031 19.554688 1.082031 Z M 3.183594 2.445312 L 18.648438 2.445312 C 18.898438 2.445312 19.101562 2.648438 19.101562 2.902344 L 19.101562 7.449219 L 14.554688 7.449219 L 14.554688 8.8125 L 19.101562 8.8125 L 19.101562 13.359375 L 14.554688 13.359375 L 14.554688 14.726562 L 19.101562 14.726562 L 19.101562 18.820312 C 19.101562 19.070312 18.898438 19.273438 18.648438 19.273438 L 3.183594 19.273438 C 2.929688 19.273438 2.730469 19.070312 2.730469 18.820312 L 2.730469 14.726562 L 7.277344 14.726562 L 7.277344 13.359375 L 2.730469 13.359375 L 2.730469 8.8125 L 7.277344 8.8125 L 7.277344 7.449219 L 2.730469 7.449219 L 2.730469 2.902344 C 2.730469 2.648438 2.929688 2.445312 3.183594 2.445312 Z M 3.183594 2.445312 "/>
<path style=" stroke:none;fill-rule:nonzero;fill:rgb(93.725491%,32.549021%,31.37255%);fill-opacity:1;" d="M 7.277344 2.445312 L 7.277344 19.273438 L 8.640625 19.273438 L 8.640625 18.996094 L 13.1875 14.449219 L 13.1875 19.273438 L 14.554688 19.273438 L 14.554688 2.445312 L 13.1875 2.445312 L 8.640625 6.992188 L 8.640625 2.445312 Z M 13.1875 4.375 L 13.1875 7.394531 L 8.640625 11.941406 L 8.640625 8.921875 Z M 13.1875 9.324219 L 13.1875 12.519531 L 8.640625 17.066406 L 8.640625 13.871094 Z M 13.1875 9.324219 "/>
</g>
</svg>

<svg xmlns="http://www.w3.org/2000/svg" width="22pt" height="22pt" viewBox="0 0 22 22"><path d="M2.273 1.082a.909.909 0 0 0-.91.91v17.735c0 .503.407.91.91.91h17.282c.504 0 .91-.407.91-.91V1.992a.909.909 0 0 0-.91-.91zm.91 1.363h15.465c.25 0 .454.203.454.457V7.45h-4.547v1.364h4.547v4.546h-4.547v1.368h4.547v4.093c0 .25-.204.453-.454.453H3.184a.451.451 0 0 1-.454-.453v-4.093h4.547v-1.368H2.73V8.813h4.547V7.449H2.73V2.902c0-.254.2-.457.454-.457zm0 0" fill="#bdbdbd"/><path d="M7.277 2.445v16.828h1.364v-.277l4.546-4.547v4.824h1.368V2.445h-1.367L8.64 6.992V2.445zm5.91 1.93v3.02L8.642 11.94v-3.02zm0 4.95v3.195l-4.546 4.546v-3.195zm0 0" fill="#ef5350"/></svg>
